X: 1380
T: An Seanchai Muimhneach
R: jig
M: 6/8
K: Edorian
|:BdB EFA B2 A B2 d|B2 E EFG A2 G FED|
B2 E EFA B2 A B2 d|AF/G/A DEF A2 G FED:|
|:g2 e fed eB^A B=AF|BG/A/B EFG A2 G F2 d|
gfe f2 d edB d2 B|AFD d2 F A2 G FED:|
|:EGE E2 D E/F/GE E2 D|E/F/GE EFG A2 G FED|
EGE E2 D E/F/GE EFG|ABA DFG A2 G F2 [DA]:|

